X:1
T: Philip O'Neill
C:
R:Jig
Q:180
K:G
M:6/8
L:1/16
|:D2|D2B2B2 B4d2|c2A2A2 A4c2|B2G2G2 G2F2G2|A2B2G2 F2E2D2|
D2B2B2 B2c2d2|c2A2G2 A2B2c2|d2G2G2 D2G2G2|1B2G2G2 G4D2:|2B2G2G2 G4G2|
|:B2c2d2 d2e2f2|g2f2e2 f2d2B2|d2e2d2 d2B2G2|G2A2G2 F2E2D2|
B2c2d2 d2e2f2|g2f2e2 f2d2B2|d2G2G2 D2G2G2|1B2G2G2 G4G2:|2B2G2G2 G4||
